public/images/icon-1.svg

<svg fill="none" height="32" viewBox="0 0 32 32" width="32" xmlns="http://www.w3.org/2000/svg"><g fill="#5e6b7e"><path d="m6.39455.585786c.37507-.375072.88378-.585786 1.41421-.585786h2.31994c.3564 0 .5349.430857.2829.682843l-9.728757 9.728757c-.251986.252-.68284235.0735-.68284234-.2829l.00000011-2.31994c.00000002-.53043.21071423-1.03914.58578723-1.41421z"/><path d="m.585786 25.9156c-.375072-.375-.58578599-.8837-.58578596-1.4142l.0000001-2.3199c.00000001-.3564.43085686-.5349.68284286-.2829l9.418557 9.4186c.252.2519.0735.6828-.28287.6828h-2.31996c-.53044 0-1.03914-.2107-1.41422-.5858z"/><path d="m26.2258 31.4142c-.3751.3751-.8838.5858-1.4143.5858h-2.3199c-.3564 0-.5349-.4309-.2829-.6828l9.1085-9.1085c.2519-.252.6828-.0735.6828.2829v2.3199c0 .5305-.2107 1.0392-.5858 1.4143z"/><path d="m32 7.49866c0-.53043-.2107-1.03914-.5858-1.41421l-5.4986-5.498663c-.3751-.375073-.8838-.585787-1.4143-.585787h-2.3199c-.3564 0-.5349.430857-.2829.682843l9.4187 9.418657c.2519.2519.6828.0735.6828-.28288z"/><path d="m18.9091 23.7654c0 .3563.4308.5348.6828.2828l7.2126-7.2125c.3905-.3906.3905-1.0237 0-1.4143l-7.2126-7.21253c-.252-.25198-.6828-.07352-.6828.28285v2.31998c0 .5304.2107 1.0391.5858 1.4142l3.1955 3.1955c.3905.3906.3905 1.0237 0 1.4143l-3.1955 3.1955c-.3751.3751-.5858.8838-.5858 1.4142z"/><path d="m13.0909 11.1218c0 .5305-.2107 1.0392-.5858 1.4142l-2.8854 2.8854c-.39052.3906-.39052 1.0237 0 1.4143l2.8854 2.8854c.3751.375.5858.8838.5858 1.4142v2.32c0 .3563-.4309.5348-.6828.2828l-6.90248-6.9024c-.39052-.3906-.39052-1.0237.00001-1.4143l6.90237-6.90237c.252-.25199.6829-.07352.6829.28284z"/></g></svg>

<svg width="32" height="32" viewBox="0 0 32 32" fill="none" xmlns="http://www.w3.org/2000/svg">
<path d="M6.39455 0.585786C6.76962 0.210714 7.27833 0 7.80876 0H10.1287C10.4851 0 10.6636 0.430857 10.4116 0.682843L0.682843 10.4116C0.430857 10.6636 6.48886e-07 10.4851 6.64463e-07 10.1287L7.65871e-07 7.80876C7.89057e-07 7.27833 0.210715 6.76962 0.585788 6.39455L6.39455 0.585786Z" fill="#5E6B7E"/>
<path d="M0.585786 25.9156C0.210714 25.5406 1.30257e-08 25.0319 3.62117e-08 24.5014L1.37621e-07 22.1815C1.53198e-07 21.8251 0.430857 21.6466 0.682843 21.8986L10.1014 31.3172C10.3534 31.5691 10.1749 32 9.81853 32H7.49857C6.96813 32 6.45943 31.7893 6.08435 31.4142L0.585786 25.9156Z" fill="#5E6B7E"/>
<path d="M26.2258 31.4142C25.8507 31.7893 25.342 32 24.8115 32H22.4916C22.1352 32 21.9567 31.5691 22.2087 31.3172L31.3172 22.2087C31.5691 21.9567 32 22.1352 32 22.4916V24.8115C32 25.342 31.7893 25.8507 31.4142 26.2258L26.2258 31.4142Z" fill="#5E6B7E"/>
<path d="M32 7.49866C32 6.96823 31.7893 6.45952 31.4142 6.08445L25.9156 0.585787C25.5405 0.210714 25.0318 0 24.5013 0H22.1814C21.825 0 21.6465 0.430857 21.8985 0.682843L31.3172 10.1015C31.5691 10.3534 32 10.175 32 9.81862V7.49866Z" fill="#5E6B7E"/>
<path d="M18.9091 23.7654C18.9091 24.1217 19.3399 24.3002 19.5919 24.0482L26.8045 16.8357C27.195 16.4451 27.195 15.812 26.8045 15.4214L19.5919 8.20887C19.3399 7.95689 18.9091 8.13535 18.9091 8.49172L18.9091 10.8117C18.9091 11.3421 19.1198 11.8508 19.4949 12.2259L22.6904 15.4214C23.0809 15.812 23.0809 16.4451 22.6904 16.8357L19.4949 20.0312C19.1198 20.4063 18.9091 20.915 18.9091 21.4454L18.9091 23.7654Z" fill="#5E6B7E"/>
<path d="M13.0909 11.1218C13.0909 11.6523 12.8802 12.161 12.5051 12.536L9.6197 15.4214C9.22918 15.812 9.22918 16.4451 9.6197 16.8357L12.5051 19.7211C12.8802 20.0961 13.0909 20.6049 13.0909 21.1353L13.0909 23.4553C13.0909 23.8116 12.66 23.9901 12.4081 23.7381L5.50562 16.8357C5.1151 16.4451 5.1151 15.812 5.50563 15.4214L12.408 8.51903C12.66 8.26704 13.0909 8.44551 13.0909 8.80187L13.0909 11.1218Z" fill="#5E6B7E"/>
</svg>
